X:7
T:Le meilleur est à venir (pour Pascale)
C:Bruno Scherrer
L:1/8
M:7/8
K:Bbmaj
Q:1/4=190
V:1
"^A""Gm9"z4gfd | "Bb6"f z d z c z B|"C7"cdG2-G3-|"Gm/F"G4-G3|
"Gm9"z4gfg | "Bb6"b z c' z _d'c'b | "C7"c'bg2-g3-|"EbΔ"g4-g3|
"Gm9"z4gfd | "Bb6"f z d z c z B|"C7"cdG2-GAz |"Gm/F" B4-B (3ABA | 
"Gm9"G4-G3-|"Bb6"G4-G3|"C7"z4z2z|"EbΔ"z4z2z :| 
"^B""F"c'4-c'ba | "C/E"g4-g3 | "Cm/Eb"g4-gfd | "D7"^f z d z c z d|
"Cm7"e4-efe | "Bb6"d4-d3| "A7sus4"c4-cBA | "D7"G z ^FzD2z|
"Eb"b4-bab | "D7+"azgzd2z | "C#°"g4-gag | "D7"^f z d z c z d | 
"Cm7"e4-efe | "Bb6"d4-d2-d| "A7sus4"c4-cBA | "G#Δb5"^G4-^G3- | ^G4-^G3-|^G4-^G3||
V:2
"^Thème 2 (fin)"G4g3 | f2f2d2f | =e4 c3 | e2e2e2f | 
d4 G3 | G2G2G2A | B4B3 | B2B2c2B | 
G4g3 | f2f2d2f | =e4 c3 | e2e2e2f | 
d4 G3 | G2G2G2A | B4B3 | B2B2c2B :|
%%begintext
Intro piano seul, puis rentrée de la section rythmique
Thème (principal)
Solos: solo sur la partie A (2 fois 16 mesures) puis thème de la partie B
Reprise du thème (avec le contre-chant)
%%endtext

